X:1
T:B b Major William Billings, 1794
T:Isaac Watts, 1717 (Psalm 91, Part 2)          86. 86. (C. M.)
T:Victory
T:Transcribed from The Continental Harmony, 1794.
%%score [ 1 2 3 4 ]
L:1/8
Q:1/4=120
M:2/2
K:Bb
V:1 treble nm="Treble" snm="Tr."
V:2 treble nm="Counter" snm="C."
V:3 treble-8 nm="Tenor" snm="T."
V:4 bass nm="Bass" snm="B."
V:1
 F4 | F6 GA | B4 A4 | (B3 A Bd) cB | (A3 G F2) GA | B4 (c2 d2) | (e2 c2) (d2 B2) | c8 | z8 | z8 | %10
 z4 z2"^your  dwelling  –  place,  And    try              and    trust    his      care.""^while  you're  a – sleep,   And   guard       your    hap –  py      days.""^them  when  they  fall,     And    raise         them   when  they   die." B2 | %11
 e6 d2 | c4 B4 | e6 d2 | (c2 B2) f4 | d8 | z4 B4 | d2 d2 d2 de | f2 f2 fe dc | B2 F2 B2 fe | %20
 d6 c2 | B2 cB c2 de | f2 ed c2 Bc | d2 e2 fe dc | d8 |] %25
V:2
"^3. \"My  grace shall  ans–wer  when           they    call,         In            trou– ble      I'll       be        nigh;      My       power   shall""^2.  He'll  give  his    an – gels  charge          to        keep        Your      feet      in      all      their    ways,      Watch   your        pil –""^1.  Ye    sons   of       men,   a     fee       –        ble      race,        Ex    –    posed  to      eve  –  ry       snare,      Come,  make       the" B,4 | %1
 D6 E2 | F6 E2 | D6 C2 | C4 (D2 E2) | F4 G4 | G4 F4 | E8 | z4 D4 | (F4 FE) DC | %10
"^1.  Lord""^2.  –low""^3.  help" B,6 z2 | %11
"^your dwelling-place,           And      try and   trust    his      care.                  No     ill shall enter where you dwell;  Or""^while you're asleep,             And guard your hap – py       days.            Their hands shall bear you, lest you fall And""^them when they fall,            And raise them  when they    die.        \"Those that on earth my name have known I'll" G4 G2 G2 | %12
 F4 z4 | G4 G2 G2 | G4 F4 | F8 | z4 F4 | F2 F2 F2 F2 | F2 F2 F2 GA | %19
"^if  the plague come nigh,     And    sweep the wicked  down  to    hell,  'Twill    raise  his saints on     high.""^dash against the  stones:     Are      they not servants    at          his  call,    And      sent   t'at – tend  his  sons?""^honor  them  in   heaven;    There  my sal–va – tion     shall  be shown, And      end – less   life   be    given.\"" B2 A2 G2 A2 | %20
 B6 AG | F2 G2 G2 F2 | B2 AG FG FE | D2 G2 F2 F2 | F8 |] %25
V:3
 F4 | B6 c2 | d6 e2 | f6 =e2 | f6 e2 | d4 (c2 B2) | e4 d4 | c8 | %8
 z4"^Come, make      the""^Watch your        pil –""^My     power    shall" F4 | B6 A2 | %10
"^Lord     your dwel  –  ling–place,     And  try              and   trust   his      care.""^– low  while you're   a   –    sleep,    And  guard       your   hap – py     days.""^help   them   when   they   fall,         And  raise         them  when they  die." G6 F2 | %11
 c6 B2 | (A4 G2) F2 | (B4 c2) d2 | (e2 d2) c4 | B8 | z4 B4 | B2 B2 B2 B>d | c2 c2 c2 Bc | %19
 d2 cd e2 de | f6 e2 | d2 cd e2 dc | Bd cB c2 de | f2 e2 dc BA/c/ | B8 |] %25
V:4
 B,,4 | B,,6 E,2 | D,6 C,2 | B,,6 C,2 | (F,3 E, D,2) C,2 | B,,4 (E,2 D,2) | C,4 B,,4 | F,8 | %8
 z4 B,,4 | B,,6 D,2 | E,6 D,2 | C,6 C,2 | (F,4 E,2) D,2 | (E,3 D, C,2) B,,2 | E,4 F,4 | B,,8 | %16
 z4 B,,4 | B,,2 B,,2 B,,2 B,,2 | F,2 F,2 F,2 B,A, | G,2 F,2 E,2 D,C, | B,,6 C,2 | %21
 D,2 E,D, C,2 B,,2 | B,,2 C,2 F,E, D,C, | B,,2 C,2 D,E, F,2 | B,,8 |] %25

